packages/icons/svg/24/ImageReplace.svg

<svg width="24" height="24" viewBox="0 0 24 24" fill="none" xmlns="http://www.w3.org/2000/svg">
<path fill-rule="evenodd" clip-rule="evenodd" d="M22 4V10C22 11.1 21.1 12 20 12H14C12.9 12 12 11.1 12 10V4C12 2.9 12.9 2 14 2H20C21.1 2 22 2.9 22 4ZM19.9 9.2L18.64 7.52C18.44 7.26 18.05 7.25 17.84 7.51L16.5 9.26L15.65 8.23C15.45 7.98 15.07 7.99 14.87 8.24L14.13 9.19C13.87 9.52 14.11 10 14.52 10H19.5C19.91 10 20.15 9.53 19.9 9.2Z" fill="#858585"/>
<path fill-rule="evenodd" clip-rule="evenodd" d="M12 14V20C12 21.1 11.1 22 10 22H4C2.9 22 2 21.1 2 20V14C2 12.9 2.9 12 4 12H10C11.1 12 12 12.9 12 14ZM9.9 19.2L8.64 17.52C8.44 17.26 8.05 17.25 7.84 17.51L6.5 19.26L5.65 18.23C5.45 17.98 5.07 17.99 4.87 18.24L4.13 19.19C3.87 19.52 4.11 20 4.52 20H9.5C9.91 20 10.15 19.53 9.9 19.2Z" fill="#858585"/>
<path fill-rule="evenodd" clip-rule="evenodd" d="M6.29144 6.9275C6.29144 6.3315 6.29227 5.94665 6.31696 5.65411C6.34061 5.37383 6.38069 5.27055 6.40768 5.21957C6.50148 5.04241 6.64636 4.89754 6.82351 4.80374C6.87449 4.77675 6.97777 4.73667 7.25805 4.71302C7.55059 4.68833 7.93544 4.6875 8.53144 4.6875H8.79144C9.34373 4.6875 9.79144 4.23979 9.79144 3.6875C9.79144 3.13522 9.34373 2.6875 8.79144 2.6875H8.53144H8.49159H8.49154C7.94666 2.68748 7.47662 2.68747 7.08987 2.7201C6.68145 2.75457 6.27574 2.83073 5.88766 3.03621C5.35618 3.31761 4.92155 3.75224 4.64015 4.28371C4.43467 4.6718 4.35851 5.07751 4.32404 5.48593C4.29141 5.87268 4.29142 6.34274 4.29144 6.88763L4.29144 6.9275V6.99999L2.50153 6.99999C2.05153 6.99999 1.83153 7.53999 2.15153 7.84999L4.94154 10.64C5.13154 10.84 5.45154 10.84 5.64154 10.65L8.43154 7.85999C8.75154 7.53999 8.53154 6.99999 8.08154 6.99999H6.29154H6.29144V6.9275Z" fill="#858585"/>
<path fill-rule="evenodd" clip-rule="evenodd" d="M17.5001 16.8638C17.5001 17.4598 17.4992 17.8446 17.4745 18.1372C17.4509 18.4174 17.4108 18.5207 17.3838 18.5717C17.29 18.7488 17.1451 18.8937 16.968 18.9875C16.917 19.0145 16.8137 19.0546 16.5335 19.0782C16.2409 19.1029 15.8561 19.1038 15.2601 19.1038L15.0001 19.1038C14.4478 19.1038 14.0001 19.5515 14.0001 20.1038C14.0001 20.656 14.4478 21.1038 15.0001 21.1038L15.2601 21.1038L15.2999 21.1038L15.3 21.1038C15.8448 21.1038 16.3149 21.1038 16.7016 21.0712C17.1101 21.0367 17.5158 20.9605 17.9038 20.7551C18.4353 20.4737 18.87 20.039 19.1514 19.5075C19.3568 19.1195 19.433 18.7138 19.4675 18.3053C19.5001 17.9186 19.5001 17.4485 19.5001 16.9036L19.5001 16.8638L19.5001 16.7913L21.29 16.7913C21.74 16.7913 21.96 16.2513 21.64 15.9413L18.85 13.1513C18.66 12.9513 18.34 12.9513 18.15 13.1413L15.36 15.9313C15.04 16.2513 15.26 16.7913 15.71 16.7913L17.5 16.7913L17.5001 16.7913L17.5001 16.8638Z" fill="#858585"/>
</svg>

<svg width="24" height="24" fill="none" xmlns="http://www.w3.org/2000/svg" viewBox="0 0 24 24"><path fill-rule="evenodd" clip-rule="evenodd" d="M22 4v6c0 1.1-.9 2-2 2h-6c-1.1 0-2-.9-2-2V4c0-1.1.9-2 2-2h6c1.1 0 2 .9 2 2zm-2.1 5.2l-1.26-1.68a.508.508 0 00-.8-.01L16.5 9.26l-.85-1.03a.5.5 0 00-.78.01l-.74.95a.5.5 0 00.39.81h4.98a.5.5 0 00.4-.8zM12 14v6c0 1.1-.9 2-2 2H4c-1.1 0-2-.9-2-2v-6c0-1.1.9-2 2-2h6c1.1 0 2 .9 2 2zm-2.1 5.2l-1.26-1.68a.508.508 0 00-.8-.01L6.5 19.26l-.85-1.03a.5.5 0 00-.78.01l-.74.95a.5.5 0 00.39.81H9.5a.5.5 0 00.4-.8zM6.291 6.928c0-.596.001-.981.026-1.274.024-.28.064-.383.09-.434a1 1 0 01.417-.416c.05-.027.154-.067.434-.091.293-.025.677-.026 1.273-.026h.26a1 1 0 100-2h-.3c-.544 0-1.014 0-1.401.033-.409.035-.814.11-1.202.316A3 3 0 004.64 4.284c-.205.388-.281.794-.316 1.202-.033.387-.033.857-.033 1.402V7h-1.79c-.45 0-.67.54-.35.85l2.79 2.79c.19.2.51.2.7.01l2.79-2.79c.32-.32.1-.86-.35-.86h-1.79v-.072zM17.5 16.864c0 .596 0 .98-.026 1.273-.023.28-.063.384-.09.435a1 1 0 01-.416.416c-.051.027-.154.067-.434.09-.293.025-.678.026-1.274.026H15a1 1 0 100 2h.3c.545 0 1.015 0 1.402-.033.408-.034.814-.11 1.202-.316a3 3 0 001.247-1.247c.206-.389.282-.794.317-1.203.032-.386.032-.857.032-1.401V16.79h1.79c.45 0 .67-.54.35-.85l-2.79-2.79c-.19-.2-.51-.2-.7-.01l-2.79 2.79c-.32.32-.1.86.35.86h1.79v.073z" fill="currentColor"></path></svg>
